X:1
T:Come to Me
T:Come to Me
T:J. Houston Smith
T:Lura Hammond, 1913
T:Public Domain Courtesy of the Cyber Hymnal™
T:Public Domain Courtesy of the Cyber Hymnal™
C:J. Houston Smith
Z:Public Domain
Z:Courtesy of the Cyber Hymnal™
%%score ( 1 2 ) ( 3 4 )
L:1/8
Q:1/4=90
M:4/4
K:G
V:1 treble 
V:2 treble 
V:3 bass 
V:4 bass 
V:1
 [DG][DA] | [GB][GB][Gd][Ge] [Gd]2 [GB][FA] | [EG][EG][EG][EG] [DG]2 [DG][FA] | %3
w: 1.~Hear the|Sav- ior’s gen- tle voice, In His|mer- cy now re- joice For He|
w: 2.~Je- sus|left His home on high, Came for|sin- ful man to die; Still He’s|
w: 3.~If you’ll|come, con- fess your sin, Life e-|ter- nal you may win, And He’ll|
 [GB]2 [GB][GB] [GB]2 [DA]G | [FA]6 [DG][DA] | [GB][GB][Gd][Ge] [Gd]2 [GB][FA] | %6
w: calls each one by sin op-|pressed; Come, ac-|cept His love to- day, He will|
w: plead- ing with sin- ners dis-|tressed; O He|suf- fered death for all, To re-|
w: guide to the land of the|blest; O no|long- er heed- less be, Trust Him|
 [EG][EG][EG][EG] [DG]2 [DG][FA] | [GB]2 [GB][GB] [Fd]2 [GB][FA] | [DG]6 |:"^Refrain" [GB]>[Ac] | %10
w: wash your sins a- way, “Come, ye|wea- ry, and I’ll give you|rest!”|“Come to|
w: deem them from the fall, “Come, ye|wea- ry, and I’ll give you|rest!”|~ ~|
w: and for aye be free, “Come, ye|wea- ry, and I’ll give you|rest!”||
 [Bd]6 [GB]>[FA] |1 [GB]6 G[FA] | [GB]2 [GB][GB] [GB]2 [DA]G | A6 :|2 [DG][FA] || %15
w: Me, come to|Me, Though by|bur- den of sin you’re op-|pressed;||
w: ~ ~ ~|~ ~ ~|~ ~ ~ ~ ~ ~|~|Come, ye|
w: |||||
 [GB]2 [GB][GB] [Fd]2 [GB][FA] | G4- [DG]2 x |] %17
w: ||
w: wea- ry, and I’ll give you|rest!” *|
w: ||
V:2
 x2 | x8 | x8 | x7 G | x8 | x8 | x8 | x8 | x6 |: x2 | x8 |1 x6 G x | x7 G | (F2 FF F2) :|2 x2 || %15
 x8 | GDEE x3 |] %17
V:3
 [G,B,][G,C] | [G,D][G,D][G,B,][G,C] [G,B,]2 [G,D][D,C] | %2
w: ~ ~|~ ~ ~ ~ ~ ~ ~|
 [E,B,][E,B,][C,C][C,C] [G,,B,]2 [B,,D][D,D] | [G,D]2 [G,D][G,D] [G,D]2 [F,D][E,^C] | %4
w: ~ ~ ~ ~ ~ ~ ~|~ ~ ~ ~ ~ ~|
 [D,D]6 [G,B,][G,C] | [G,D][G,D][G,B,][G,C] [G,B,]2 [G,D][D,C] | %6
w: ~ ~ ~|~ ~ ~ ~ ~ ~ ~|
 [E,B,][E,B,][C,C][C,C] [G,B,]2 [B,D][A,D] | [G,D]2 [E,E][E,E] [B,,D]2 [D,D][D,C] | [G,,B,]6 |: %9
w: ~ ~ ~ ~ ~ ~ ~|~ ~ ~ ~ ~ ~|~|
 z2 | z2 [G,D]>[G,D] [G,D]2 z2 |1 z2 [G,D]>[G,D] [G,D]2 [B,D][A,D] | %12
w: |Come to Me,|come to Me ~ ~|
 [G,D]2 [G,D][G,D] [G,D]2 [F,D][E,^C] | [D,D]2 [D,D][D,D] [D,D]2 :|2 [B,D][A,D] || %15
w: ~ ~ ~ ~ ~ ~|~ you’re op- pressed;|~ ~|
 [G,D]2 [E,E][E,E] [B,,D]2 [D,D][D,C] | B, [G,,B,]2 x4 |] %17
w: ~ ~ ~ ~ ~ ~|~ give|
V:4
 x2 | x8 | x8 | x8 | x8 | x8 | x8 | x8 | x6 |: x2 | x8 |1 x8 | x8 | x6 :|2 x2 || x8 | G,,4 B,CC |] %17

